web/wp-content/themes/cncf-twenty-two/images/projects/metal3-icon-color.svg

<svg id="Layer_1" data-name="Layer 1" xmlns="http://www.w3.org/2000/svg" viewBox="0 0 556.66998 539.67999"><defs><style>.cls-1{fill:#fff;}.cls-2{fill:#00e0c1;}.cls-3{fill:#00fbdb;}.cls-4{fill:#00eec4;}.cls-5{fill:#00d1bd;}</style></defs><g id="Layer_2" data-name="Layer 2"><g id="Layer_1-2" data-name="Layer 1-2"><path class="cls-1" d="M180.91,539.68h-.7a17.4266,17.4266,0,0,1-2-.17h-.14l-1.62-.2a69.38965,69.38965,0,0,1-40.27-19.47l-1.07-1.06L85.65,457.52,12.31,366.93l-.5-.72a64.48037,64.48037,0,0,1-7.17-13.15,63.72,63.72,0,0,1-2.58-7.77v-.11c-.22-.85-.43-1.69-.62-2.56v-.14A62,62,0,0,1,0,331.54v-.95a63.77027,63.77027,0,0,1,1-12.34l.11-.61L15.62,254,44.34,128a58.22,58.22,0,0,1,32-39.68L254.54,2.39l3.34-.67A88.08,88.08,0,0,1,275.17,0h3.4a58.85,58.85,0,0,1,24.5,5.29l.47.22,175.82,84.2.48.25a67.34009,67.34009,0,0,1,18.84,14.75,63.33873,63.33873,0,0,1,7.39,10.06l.17.29a59.75,59.75,0,0,1,5.23,12l.3,1L556,318.31l.17,1.42a66.12007,66.12007,0,0,1-11.79,46.54l-.48.68L422.44,517.19a55.72987,55.72987,0,0,1-29.06,19.91c-.93.27-1.87.52-2.81.75l-.3.07a67.74811,67.74811,0,0,1-15.35,1.76Z"/><path class="cls-2" d="M491,131.65a33.85922,33.85922,0,0,0-3-6.73,36.55973,36.55973,0,0,0-4.36-5.92A41.58971,41.58971,0,0,0,472,109.87l-179.82-86a32.89009,32.89009,0,0,0-13.88-2.95h-.77a62.33025,62.33025,0,0,0-14.74,1.18L83.07,108.7A31.64,31.64,0,0,0,65.4,130.49l-3.69,16.16L278,264.32l.34-.18L495.56,151.42Z"/><polygon class="cls-3" points="278.33 264.5 278.33 264.14 277.99 264.32 278.33 264.5"/><path class="cls-4" d="M278,264.32,61.71,146.65,35.94,259.75,21.21,324.38a36.82934,36.82934,0,0,0-.58,7.48v.29a36.13039,36.13039,0,0,0,.79,6.39c.12.56.26,1.1.4,1.65a37.34867,37.34867,0,0,0,1.54,4.62,38.29,38.29,0,0,0,4.28,7.85l23.69,29.27,51,63L152,506.48a43.1001,43.1001,0,0,0,25.14,12.16c.67,0,1.31.18,2,.21h99.17V264.51Z"/><path class="cls-5" d="M535.75,324.38l-40.19-173L278.33,264.14V518.85h98.82a41.62215,41.62215,0,0,0,9.69-1.09c.62-.15,1.23-.31,1.84-.49a29.12026,29.12026,0,0,0,15.56-10.79l66.09-81.75L501.64,386l26.94-33.33A40.27016,40.27016,0,0,0,535.75,324.38Z"/><path class="cls-1" d="M119.94,369l137,75.89a4.42,4.42,0,0,0,6.57-3.87V280a15.51005,15.51005,0,0,0-8.19-13.67l-1.64-.87L119,193.47a2.6,2.6,0,0,0-3.83,2.28l-.94,163.17C114.25,362.55,117,367.36,119.94,369Z"/><path class="cls-1" d="M281.61,103.85a27.78007,27.78007,0,0,0-11.71,2.48L135.7,166.8a2.61,2.61,0,0,0-.16,4.69L271.26,244c.15.09.31.16.47.24l.59.29.26.11.8.34h.09a18.55,18.55,0,0,0,15.24-1l139.14-73.94a3.24,3.24,0,0,0-.24-5.85L292.55,106.14A27.86,27.86,0,0,0,281.61,103.85Z"/><path class="cls-1" d="M441.82,192.61q-1.62-.74-4,.59L413.3,206.74a17.14994,17.14994,0,0,0-7.81,9.09L368,303.38l-37.31-46.2c-1.59-2.29-4.2-2.45-7.81-.45l-24.51,13.54a11.1798,11.1798,0,0,0-4,3.85,9.08985,9.08985,0,0,0-1.62,4.91V445.86c0,1.59.55,2.59,1.63,3a4.77953,4.77953,0,0,0,4-.69l27.34-15.1a11.53,11.53,0,0,0,4-3.74,8.52,8.52,0,0,0,1.63-4.8v-105l23.21,30.12q3.25,3.19,7.59.8L373.82,344q4.77-2.62,7.59-9.18l23.43-55.9.25,97.1.17,8.31a2.85,2.85,0,0,0,1.69,2.86,4.16,4.16,0,0,0,3.78-.55L438,370.81a11.48982,11.48982,0,0,0,3.9-3.81,8.49,8.49,0,0,0,1.52-4.84V195.73C443.45,194.13,442.91,193.09,441.82,192.61Z"/></g></g></svg>

<svg viewBox="0 0 556.66998 539.67999" xmlns="http://www.w3.org/2000/svg"><path d="m180.91 539.68h-.7a17.4266 17.4266 0 0 1 -2-.17h-.14l-1.62-.2a69.38965 69.38965 0 0 1 -40.27-19.47l-1.07-1.06-49.46-61.26-73.34-90.59-.5-.72a64.48037 64.48037 0 0 1 -7.17-13.15 63.72 63.72 0 0 1 -2.58-7.77v-.11c-.22-.85-.43-1.69-.62-2.56v-.14a62 62 0 0 1 -1.44-10.94v-.95a63.77027 63.77027 0 0 1 1-12.34l.11-.61 14.51-63.64 28.72-126a58.22 58.22 0 0 1 32-39.68l178.2-85.93 3.34-.67a88.08 88.08 0 0 1 17.29-1.72h3.4a58.85 58.85 0 0 1 24.5 5.29l.47.22 175.82 84.2.48.25a67.34009 67.34009 0 0 1 18.84 14.75 63.33873 63.33873 0 0 1 7.39 10.06l.17.29a59.75 59.75 0 0 1 5.23 12l.3 1 44.23 190.25.17 1.42a66.12007 66.12007 0 0 1 -11.79 46.54l-.48.68-121.46 150.24a55.72987 55.72987 0 0 1 -29.06 19.91c-.93.27-1.87.52-2.81.75l-.3.07a67.74811 67.74811 0 0 1 -15.35 1.76z" fill="#fff"/><path d="m491 131.65a33.85922 33.85922 0 0 0 -3-6.73 36.55973 36.55973 0 0 0 -4.36-5.92 41.58971 41.58971 0 0 0 -11.64-9.13l-179.82-86a32.89009 32.89009 0 0 0 -13.88-2.95h-.77a62.33025 62.33025 0 0 0 -14.74 1.18l-179.72 86.6a31.64 31.64 0 0 0 -17.67 21.79l-3.69 16.16 216.29 117.67.34-.18 217.22-112.72z" fill="#00e0c1"/><path d="m278.33 264.5v-.36l-.34.18z" fill="#00fbdb"/><path d="m278 264.32-216.29-117.67-25.77 113.1-14.73 64.63a36.82934 36.82934 0 0 0 -.58 7.48v.29a36.13039 36.13039 0 0 0 .79 6.39c.12.56.26 1.1.4 1.65a37.34867 37.34867 0 0 0 1.54 4.62 38.29 38.29 0 0 0 4.28 7.85l23.69 29.27 51 63 49.67 61.55a43.1001 43.1001 0 0 0 25.14 12.16c.67 0 1.31.18 2 .21h99.17v-254.34z" fill="#00eec4"/><path d="m535.75 324.38-40.19-173-217.23 112.76v254.71h98.82a41.62215 41.62215 0 0 0 9.69-1.09c.62-.15 1.23-.31 1.84-.49a29.12026 29.12026 0 0 0 15.56-10.79l66.09-81.75 31.31-38.73 26.94-33.33a40.27016 40.27016 0 0 0 7.17-28.29z" fill="#00d1bd"/><g fill="#fff"><path d="m119.94 369 137 75.89a4.42 4.42 0 0 0 6.57-3.87v-161.02a15.51005 15.51005 0 0 0 -8.19-13.67l-1.64-.87-134.68-71.99a2.6 2.6 0 0 0 -3.83 2.28l-.94 163.17c.02 3.63 2.77 8.44 5.71 10.08z"/><path d="m281.61 103.85a27.78007 27.78007 0 0 0 -11.71 2.48l-134.2 60.47a2.61 2.61 0 0 0 -.16 4.69l135.72 72.51c.15.09.31.16.47.24l.59.29.26.11.8.34h.09a18.55 18.55 0 0 0 15.24-1l139.14-73.94a3.24 3.24 0 0 0 -.24-5.85l-135.06-58.05a27.86 27.86 0 0 0 -10.94-2.29z"/><path d="m441.82 192.61q-1.62-.74-4 .59l-24.52 13.54a17.14994 17.14994 0 0 0 -7.81 9.09l-37.49 87.55-37.31-46.2c-1.59-2.29-4.2-2.45-7.81-.45l-24.51 13.54a11.1798 11.1798 0 0 0 -4 3.85 9.08985 9.08985 0 0 0 -1.62 4.91v166.83c0 1.59.55 2.59 1.63 3a4.77953 4.77953 0 0 0 4-.69l27.34-15.1a11.53 11.53 0 0 0 4-3.74 8.52 8.52 0 0 0 1.63-4.8v-105l23.21 30.12q3.25 3.19 7.59.8l11.67-6.45q4.77-2.62 7.59-9.18l23.43-55.9.25 97.1.17 8.31a2.85 2.85 0 0 0 1.69 2.86 4.16 4.16 0 0 0 3.78-.55l27.27-15.83a11.48982 11.48982 0 0 0 3.9-3.81 8.49 8.49 0 0 0 1.52-4.84v-166.43c.03-1.6-.51-2.64-1.6-3.12z"/></g></svg>
